!!!!SEGMENT: pl-kk--kk-i-389--009-002_anonim--missa-no-9-kyrie.krn
!!!cenid: 17xx:2515
!!!COM: Anonim
!!!COM-rismID: pe30004985
!!!CDT:
!!!CNT:
!!!OPR: [Missa] No. 9.
!!!OTL: Kyrie
!!!OMV: 002
!!!PDT:
!!!AGN: Sacred; Mass
!!!YEC: Copyright 2022 Narodowy Instytut Fryderyka Chopina (https://polishscores.org)
!!!YEM: License CC-BY-4.0 (https://creativecommons.org/licenses/by/4.0)
!!!SMS-siglum: PL-Kk
!!!SMS-shelfmark: Kk.I.389
!!!SMS-variant:
!!!SMS-altvar:
!!!SMS-shelfwork: 009-002 M
!!!NIFC-rismSourceID: 1001146182
!!!NIFC-rismChildID: 1001147253
!!!NIFC-islandoraID: pl-kk:6976
!!!URL-pdf-islandora: https://repozytorium.nifc.pl/islandora/object/pl-kk%3A6976/datastream/PDF/view
!!!URL-scan: https://polish.musicsources.pl/pl/lokalizacje/galeria/rekopisy/5999/1 @EN{Scan on Polish Music Sources Website} @PL{Skany w portalu Dziedzictwo Muzyki Polskiej w otwartym dostępie}
!!!IIIF:
!!!ONB-nifc: UWAGA: S – skan 15-16, A – 34-35, T – 53-54, B – 72-73. Części Mszy: Rorate, Kyrie, Gloria, Graduale, Sanctus, Benedictus, Agnus, Dona.
!!!AIN: 1 alto 1 bass 1 soprn 1 tenor
!!!key: C
**kern	**text	**kern	**text	**kern	**text	**kern	**text
*part4	*part4	*part3	*part3	*part2	*part2	*part1	*part1
*staff4	*staff4	*staff3	*staff3	*staff2	*staff2	*staff1	*staff1
*I"Basso.	*	*I"Tenore.	*	*I"Alto.	*	*I"Soprano.	*
*I'B.	*	*I'T.	*	*I'A.	*	*I'S.	*
*ICvox	*	*ICvox	*	*ICvox	*	*ICvox	*
*Ibass	*	*Itenor	*	*Ialto	*	*Isoprn	*
*clefF4	*	*clefC4	*	*clefC3	*	*clefC1	*
*k[]	*	*k[]	*	*k[]	*	*k[]	*
*C:	*	*C:	*	*C:	*	*C:	*
*M2/2	*	*M2/2	*	*M2/2	*	*M2/2	*
*met(C.)	*	*met(C.)	*	*met(C.)	*	*met(C.)	*
=1	=1	=1	=1	=1	=1	=1	=1
*	*	*	*	*	*	*all\right:global	*
4.C/	Ky-	4.e\	Ky-	4.c/	Ky-	4.g\	Ky-
8C/	-ri-	8e\	-ri-	8G/	-ri-	8cc\	-ri-
4C/	-e	4e\	-e	4G/	-e	4cc\	-e
4C/	e-	4G/	e-	4e\	e-	4cc\	e-
=2	=2	=2	=2	=2	=2	=2	=2
4G\	-le-	8G/L	-le-	8e\L	-le-	8cc\L	-le-
.	.	8F/	.	8d\J	.	8g\J	.
4GG/	-i-	8E/	.	8c\L	-i-	4g\	-i-
.	.	8D/J	-i-	8B\J	.	.	.
8C/	-son	4E/	-son	4c\	-son.	8g/	-son
8C/	e-	.	.	.	.	8e/	e-
8E\	-lei-	4r	.	4r	.	8g\	-lei-
8G\	-son	.	.	.	.	8cc\	-son
=3	=3	=3	=3	=3	=3	=3	=3
4.c\	Ky-	4.c\	Ky-	4.e\	Ky-	4.g/	Ky-
8C/	-ri-	8G/	-ri-	8c\	-ri-	8e/	-ri-
4C/	-e	4G/	-e	4c\	-e	4e/	-e
4C/	e-	4e\	e-	4g\	e-	4cc\	e-
=4	=4	=4	=4	=4	=4	=4	=4
4G\	-lei-	8e\L	-le-	8g\L	-le-	8cc\L	-le-
.	.	8d\	.	8f\J	.	8b\J	.
4GG/	.	8c\	.	8e\L	-i-	4g\	-i-
.	.	8B\J	-i-	8d\J	.	.	.
!	!	!	!	!	!	!LO:LB:g=original	!
8C/	-son	4c\	-son.	4e\	-son,	8g\	-son
8c\	e-	.	.	.	.	8ee\	e-
8G\	-lei-	4r	.	4r	.	8cc\	-lei-
8E\	-son	.	.	.	.	8g\	-son
!LO:LB:g=original	!	!LO:LB:g=original	!	!LO:LB:g=original	!	!	!
=5	=5	=5	=5	=5	=5	=5	=5
4.C/	Ky-	4.c\	Ky-	4.e\	Ky-	4.g\	Ky-
8BB/	-ri-	8d\	-ri-	8f\	-ri-	8g\	-ri-
4C/	-e	8e\L	-e	8g\L	-e	4g\	-e
.	.	8c\J	.	8e\J	.	.	.
4C/	e-	8f\L	e-	8a\L	e-	4cc\	e-
.	.	8e\J	.	8g\J	.	.	.
=6	=6	=6	=6	=6	=6	=6	=6
4G\	-le-	8e\L	-le-	8g\L	-le-	8cc\L	-le-
.	.	8d\J	.	8f\J	.	8b\J	.
4GG/	-i-	8d\L	-i-	8f\L	-i-	8b\L	-i-
.	.	8c\J	.	8e\J	.	8g\J	.
4GG/	-son	4d\	-son	4f\	-son	4g\	-son
4r	.	4r	.	4r	.	4r	.
=7	=7	=7	=7	=7	=7	=7	=7
2r	.	4.B\	Ky-	4.d\	Ky-	4.g\	Ky-
.	.	8c\	-ri-	8e\	-ri-	8g\	-ri-
4r	.	8d\L	-e	8f\L	-e	4g\	-e
.	.	8B\J	.	8d\J	.	.	.
8r	.	8e\L	e-	8g\L	e-	4g\	e-
8G\	e-	8d\J	.	8f\J	.	.	.
=8	=8	=8	=8	=8	=8	=8	=8
*2\right	*	*	*	*	*	*2\right	*
2G\	-lei-	8d\L	-le-	8f\L	-le-	2g\	-lei-
.	.	8c\J	.	8e\J	.	.	.
.	.	8c\L	-i-	8e\L	-i-	.	.
.	.	8B\J	.	8d\J	.	.	.
4C/	-son	4c\	-son	4e\	-son	4g\	-son
8r	.	8r	.	8r	.	8r	.
8GG/	e-	8B\	e-	8d\	e-	8g\	e-
!	!	!	!	!	!	!LO:LB:g=original	!
=9	=9	=9	=9	=9	=9	=9	=9
.	.	8qqd/	.	8qqf/	.	.	.
2C/	-le-	4c\	-e-	4e\	-le-	2g\	-le-
!	!	!	!	!LO:LB:g=original	!	!	!
.	.	8B\L	.	8d\L	.	.	.
.	.	8c\J	.	8e\J	.	.	.
!	!	!LO:LB:g=original	!	!	!	!	!
4F\	.	8f\L	-le-	8a\L	.	2a\	.
.	.	8e\J	.	8g\J	.	.	.
4F#X\	-i-	8d\L	-i-	8f\L	-i-	.	.
.	.	8c\J	.	8e\J	.	.	.
=10	=10	=10	=10	=10	=10	=10	=10
.	.	8qqc/	.	8qqe/	.	.	.
*	*	*2\right	*	*2\right	*	*	*
2G\	-son,	2B\	-son,	2d\	-son,	2g\	-son.
2r	.	2r	.	2r	.	2r	.
!LO:LB:g=original	!	!	!	!	!	!	!
=11	=11	=11	=11	=11	=11	=11	=11
2r	.	2B\	Chri-	4.g\	Chri-	2r	.
.	.	.	.	8d\	.	.	.
4r	.	4B\	-ste	4d\	-ste	4r	.
4G\	e-	8c\L	e-	8e\L	e-	4b\	e-
.	.	8d\J	.	8f\J	.	.	.
=12	=12	=12	=12	=12	=12	=12	=12
8B\L	-le-	2d\	-lei-	2f\	-lei-	8dd\L	-le-
8G\	.	.	.	.	.	8b\	.
8A\	.	.	.	.	.	8cc\	.
8B\J	-i-	.	.	.	.	8dd\J	-i-
4c\	-son	4c\	-son	4e\	-son	4ee\	-son,
4r	.	4r	.	4r	.	4r	.
=13	=13	=13	=13	=13	=13	=13	=13
2r	.	2c#X\	Chri-	4.a\	Chri-	4.ee\	Chri-
.	.	.	.	8e\	.	8a\	.
4r	.	4c#\	-ste	4e\	-ste	4a\	-ste
4A\	e-	8d\L	e-	8f#X\L	e-	4cc#X\	e-
.	.	8e\J	.	8g\J	.	.	.
!	!	!	!	!LO:LB:g=original	!	!	!
=14	=14	=14	=14	=14	=14	=14	=14
8c#X\L	-le-	2e\	-lei-	2g\	-lei-	8ee\L	-le-
8A\	.	.	.	.	.	8cc#X\	.
8B\	.	.	.	.	.	8dd\	.
8c#\J	-i-	.	.	.	.	8ee\J	-i-
4d\	-son	4d\	-son	4f#X\	-son	4dd\	-son,
4F#X\	e-	4d\	e-	4a\	e-	4ccn\	e-
!	!	!	!	!	!	!LO:LB:g=original	!
=15	=15	=15	=15	=15	=15	=15	=15
4G\	-le-	4d\	-le-	4b\	-le-	4g\	-le-
4E\	-i-	8e\L	.	8cc\L	.	4cc\	.
.	.	8c\J	.	8a\J	.	.	.
2D\	.	4B\	.	4g\	.	2dd\	-i-
.	.	8c\L	-i-	8a\L	.	.	.
.	.	8A\J	.	8f#X\J	-i-	.	.
!LO:LB:g=original	!	!	!	!	!	!	!
=16	=16	=16	=16	=16	=16	=16	=16
4GG/	-son,	2B\	-son,	2g\	-son,	4dd\	-son,
8d\	Ky-	.	.	.	.	8ff\	Ky-
8c\	-ri-	.	.	.	.	8ee\	-ri-
!	!	!LO:TX:t=P:problem:wykreślone 6 taktów	!	!	!	!	!
8B\	-e	2r	.	2r	.	8dd\	-e
8A\	e-	.	.	.	.	8ff\	e-
8G\L	-lei-	.	.	.	.	8ee\	-le-
8F\J	.	.	.	.	.	8dd\	-i-
!	!	!LO:LB:g=original	!	!	!	!	!
=17	=17	=17	=17	=17	=17	=17	=17
4E\	-son	4r	.	4r	.	4cc\	-son
4r	.	8e\	Ky-	8g\L	Ky-	4r	.
.	.	8d\	-ri-	8fn\J	-ri-	.	.
2r	.	8c\	-e	8e\	-e	2r	.
.	.	8B-X\	e-	8d\	e-	.	.
.	.	8A/L	-lei-	8c/L	-lei-	.	.
.	.	8G/J	.	8B-X/J	.	.	.
=18	=18	=18	=18	=18	=18	=18	=18
4r	.	4F/	-son	4A/	-son	4r	.
8F\	Ky-	4r	.	4r	.	8a\	Ky-
8G\	-ri-	.	.	.	.	8b-X\	-ri-
8A\	-e	2r	.	2r	.	8cc\	-e
8G\	e-	.	.	.	.	8b-\	e-
8F#X\L	-lei-	.	.	.	.	8a\L	-lei-
8A\J	.	.	.	.	.	8cc\J	.
=19	=19	=19	=19	=19	=19	=19	=19
2G\	-son,	2r	.	2r	.	2bn\	-son,
4.G\	Ky-	4.d\	Ky-	4.g\	Ky-	4.b\	Ky-
8G\	-ri-	8d\	-ri-	8g\	-ri-	8b\	-ri-
!LO:LB:g=original	!	!	!	!LO:LB:g=original	!	!LO:LB:g=original	!
=20	=20	=20	=20	=20	=20	=20	=20
2A\	-e	2d\	-e	2f#X\	-e	2cc\	-e
2B\	e-	2d\	e-	2fn\	e-	2g\	e-
=21	=21	=21	=21	=21	=21	=21	=21
8c\L	-le-	4c\	-lei-	4e\	-lei-	4g\	-lei-
8G\J	-i-	.	.	.	.	.	.
8E\	-son	8e\	-son	8g\	-son	8cc\	-son
8C/	e-	8e\	e-	8g\	e-	8cc\	e-
4F\	-le-	4f\	-lei-	4a\	-le-	4dd\	-le-
!LO:TX:t=P:problem:mixed beam	!	!	!	!	!	!	!
8G\L	.	4d\	.	4g\	-i-	4b\	-i-
8GG/J	-i-	.	.	.	.	.	.
=22	=22	=22	=22	=22	=22	=22	=22
.	.	8qqf/	.	.	.	.	.
4C/	-son,	2e\	-son	4g\	-son	4cc\	-son
8d\	Ky-	.	.	4r	.	8ff\	Ky-
8c\	-ri-	.	.	.	.	8ee\	-ri-
8B\	-e	2r	.	2r	.	8dd\	-e
8A\	e-	.	.	.	.	8ff\	e-
8G\L	-lei-	.	.	.	.	8ee\L	-lei-
8F\J	.	.	.	.	.	8dd\J	.
!	!	!LO:LB:g=original	!	!	!	!	!
=23	=23	=23	=23	=23	=23	=23	=23
4E\	-son	4r	.	4r	.	4cc\	-son
4r	.	8G/	Ky-	8e\	Ky-	4r	.
.	.	8A/	-ri-	8f\	-ri-	.	.
2r	.	8B-X\	-e	8g\	-e	2r	.
.	.	8d\	e-	8b-X\	e-	.	.
.	.	8c\L	-lei-	8a\L	-lei-	.	.
.	.	8B-\J	.	8g\J	.	.	.
=24	=24	=24	=24	=24	=24	=24	=24
4r	.	4A\	-son	4f\	-son	4r	.
8F\	Ky-	4r	.	4r	.	8a\	Ky-
8G\	-ri-	.	.	.	.	8b-X\	-ri-
!LO:LB:g=original	!	!	!	!	!	!	!
8A\	.	2r	.	2r	.	8cc\	-e
8G\	-e	.	.	.	.	8b-\	e-
8F#X\L	e-	.	.	.	.	8a\L	-lei-
8A\J	-lei-	.	.	.	.	8cc\J	.
!	!	!	!	!LO:LB:g=original	!	!LO:LB:g=original	!
=25	=25	=25	=25	=25	=25	=25	=25
2G\	.	2r	.	2r	.	2bn\	-son,
4.G\	-son,	4.d\	Ky-	4.g\	Ky-	4.b\	Ky-
8G\	Ky-	8d\	-ri-	8g\	-ri-	8b\	-ri-
=26	=26	=26	=26	=26	=26	=26	=26
2A\	-ri-	2d\	-e	2f#X\	-e	2cc\	-e
2B\	-e	2d\	e-	2fn\	e-	2g\	e-
=27	=27	=27	=27	=27	=27	=27	=27
8c\L	e-	4c\	-lei-	4e\	-lei-	4g\	-lei-
8G\J	-lei-	.	.	.	.	.	.
8E\	.	8e\	-son	8g\	-son	8cc\	-son
8C\	-son	8e\	e-	8g\	e-	8cc\	e-
8F\L	e-	4f\	-lei-	4a\	-lei-	4dd\	-lei-
8D\J	-le-	.	.	.	.	.	.
!LO:TX:t=P:problem:mixed beam	!	!	!	!	!	!	!
8G\L	.	4d\	.	4g\	.	4b\	.
8GG/J	i-	.	.	.	.	.	.
=28	=28	=28	=28	=28	=28	=28	=28
.	.	8qqf/	.	.	.	.	.
2C/	-son.	2e\	-son.	2g\	-son.	2cc\	-son.
2r	.	2r	.	2r	.	2r	.
==	==	==	==	==	==	==	==
*-	*-	*-	*-	*-	*-	*-	*-
!!!system-decoration: [(s1,s2,s3,s4)]
!!!ENC: Berenika Jozajtis
!!!END: 2023-11-11
!!!ENC: Leszek Kubiak
!!!END: 2024-01-20
